X: 2
T: Phil The Fluter's Ball
M: 4/4
L: 1/8
R:Hornpipe
N: Marked &quot;Moderato e marcato&quot;
K: Dmaj
FE |\
DDDD dddc | BABc d2 FE | DDDD dddB | ABAF E2 EF |
DDDD dddc | BABc d2 ee | fded dcBA | BBcc d2 ||
de |\
f2 fd e2 ec | dedB AFDA | fffd eeec | dcBe A3 d |
f2 fd e3 c | dedB AFDF | ABAF dBAF | ABAF E2 ||
